X:5601
T:G\aa{}ngl\aa{}t
R:G\aa{}ngl\aa{}t
O:Sweden
M:4/4
K:G
D3F G2A2|F6 A2|D3F A2B2|c2A2 d4|\
e3e d2B2|G4 A3F|D2D2 F2F2|(G4 G4):|
|:\
A3F DFA2|(c4 c4)|c3B GBc2|d6 d2|\
e3e d2B2|G4 A3F|D2D2 F2F2|(G4 G4):|
